app/assets/images/heroicons/solid/radio.svg

<svg width="24" height="24" viewBox="0 0 24 24" fill="none" xmlns="http://www.w3.org/2000/svg">
<path fill-rule="evenodd" clip-rule="evenodd" d="M20.4321 4.1026C20.8339 4.00214 21.0782 3.59494 20.9778 3.19309C20.8773 2.79125 20.4701 2.54693 20.0683 2.64739L4.12873 6.63227C4.06201 6.64311 3.99534 6.65407 3.92872 6.66517C2.49686 6.90377 1.5 8.15785 1.5 9.57402V18.75C1.5 20.4069 2.84315 21.75 4.5 21.75H19.5C21.1569 21.75 22.5 20.4069 22.5 18.75V9.57402C22.5 8.15785 21.5031 6.90377 20.0713 6.66517C17.7057 6.27098 15.2828 6.04718 12.8157 6.00669L20.4321 4.1026ZM10.8471 12.6628C11.14 12.9557 11.14 13.4306 10.8471 13.7234L10.8418 13.7287C10.5489 14.0216 10.074 14.0216 9.78115 13.7287L9.77584 13.7234C9.48295 13.4306 9.48295 12.9557 9.77584 12.6628L9.78115 12.6575C10.074 12.3646 10.5489 12.3646 10.8418 12.6575L10.8471 12.6628ZM9.78144 15.8498C10.0743 16.1427 10.5492 16.1427 10.8421 15.8498L10.8474 15.8445C11.1403 15.5516 11.1403 15.0768 10.8474 14.7839L10.8421 14.7786C10.5492 14.4857 10.0743 14.4857 9.78144 14.7786L9.77613 14.7839C9.48324 15.0768 9.48324 15.5516 9.77613 15.8445L9.78144 15.8498ZM8.72602 14.7841C9.01891 15.077 9.01891 15.5518 8.72602 15.8447L8.72071 15.85C8.42782 16.1429 7.95295 16.1429 7.66005 15.85L7.65475 15.8447C7.36186 15.5518 7.36186 15.077 7.65475 14.7841L7.66005 14.7788C7.95295 14.4859 8.42782 14.4859 8.72071 14.7788L8.72602 14.7841ZM7.66034 13.7286C7.95324 14.0214 8.42811 14.0214 8.721 13.7286L8.72631 13.7232C9.0192 13.4304 9.0192 12.9555 8.72631 12.6626L8.721 12.6573C8.42811 12.3644 7.95324 12.3644 7.66034 12.6573L7.65504 12.6626C7.36215 12.9555 7.36215 13.4304 7.65504 13.7232L7.66034 13.7286ZM9.25488 9.75C9.6691 9.75 10.0049 10.0858 10.0049 10.5V10.5075C10.0049 10.9217 9.6691 11.2575 9.25488 11.2575H9.24738C8.83317 11.2575 8.49738 10.9217 8.49738 10.5075V10.5C8.49738 10.0858 8.83317 9.75 9.24738 9.75H9.25488ZM12.879 13.0296C13.2378 12.8225 13.3607 12.3638 13.1536 12.0051L13.1498 11.9986C12.9427 11.6399 12.484 11.517 12.1253 11.7241L12.1188 11.7278C11.7601 11.9349 11.6372 12.3936 11.8443 12.7523L11.848 12.7588C12.0551 13.1176 12.5138 13.2405 12.8726 13.0334L12.879 13.0296ZM11.4996 18.1558C11.1409 18.3629 10.6822 18.24 10.4751 17.8813L10.4713 17.8748C10.2642 17.5161 10.3871 17.0574 10.7459 16.8503L10.7524 16.8465C11.1111 16.6394 11.5698 16.7623 11.7769 17.1211L11.7806 17.1276C11.9877 17.4863 11.8648 17.945 11.5061 18.1521L11.4996 18.1558ZM11.781 11.3799C11.9881 11.0211 11.8652 10.5625 11.5065 10.3553L11.5 10.3516C11.1413 10.1445 10.6826 10.2674 10.4755 10.6261L10.4717 10.6326C10.2646 10.9913 10.3875 11.45 10.7462 11.6571L10.7527 11.6609C11.1115 11.868 11.5701 11.7451 11.7773 11.3864L11.781 11.3799ZM13.1499 16.5087C12.9428 16.8675 12.4841 16.9904 12.1254 16.7833L12.1189 16.7795C11.7602 16.5724 11.6373 16.1137 11.8444 15.755L11.8481 15.7485C12.0552 15.3898 12.5139 15.2669 12.8726 15.474L12.8791 15.4777C13.2379 15.6848 13.3608 16.1435 13.1537 16.5023L13.1499 16.5087ZM13.0049 15.0073C13.4191 15.0073 13.7549 14.6715 13.7549 14.2573V14.2498C13.7549 13.8356 13.4191 13.4998 13.0049 13.4998H12.9974C12.5832 13.4998 12.2474 13.8356 12.2474 14.2498V14.2573C12.2474 14.6715 12.5832 15.0073 12.9974 15.0073H13.0049ZM9.25488 17.25C9.6691 17.25 10.0049 17.5858 10.0049 18V18.0075C10.0049 18.4217 9.6691 18.7575 9.25488 18.7575H9.24738C8.83317 18.7575 8.49738 18.4217 8.49738 18.0075V18C8.49738 17.5858 8.83317 17.25 9.24738 17.25H9.25488ZM6.38393 16.7796C6.74265 16.5725 6.86555 16.1138 6.65845 15.7551L6.6547 15.7486C6.44759 15.3899 5.9889 15.267 5.63018 15.4741L5.62368 15.4778C5.26496 15.6849 5.14206 16.1436 5.34916 16.5023L5.35291 16.5088C5.56002 16.8676 6.01871 16.9905 6.37743 16.7834L6.38393 16.7796ZM7.74962 11.6607C7.3909 11.8678 6.9322 11.7449 6.7251 11.3862L6.72135 11.3797C6.51424 11.021 6.63715 10.5623 6.99587 10.3552L7.00236 10.3514C7.36108 10.1443 7.81977 10.2672 8.02688 10.6259L8.03063 10.6324C8.23774 10.9912 8.11483 11.4498 7.75611 11.657L7.74962 11.6607ZM8.03101 17.875C8.23811 17.5163 8.11521 17.0576 7.75649 16.8505L7.74999 16.8467C7.39127 16.6396 6.93258 16.7625 6.72547 17.1212L6.72172 17.1277C6.51462 17.4864 6.63752 17.9451 6.99624 18.1522L7.00274 18.156C7.36146 18.3631 7.82015 18.2402 8.02726 17.8815L8.03101 17.875ZM6.65479 12.7587C6.44768 13.1175 5.98899 13.2404 5.63027 13.0333L5.62377 13.0295C5.26505 12.8224 5.14215 12.3637 5.34925 12.005L5.353 11.9985C5.56011 11.6398 6.0188 11.5169 6.37752 11.724L6.38402 11.7277C6.74274 11.9348 6.86564 12.3935 6.65854 12.7522L6.65479 12.7587ZM5.50488 15.0073C5.9191 15.0073 6.25488 14.6715 6.25488 14.2573V14.2498C6.25488 13.8356 5.9191 13.4998 5.50488 13.4998H5.49738C5.08317 13.4998 4.74738 13.8356 4.74738 14.2498V14.2573C4.74738 14.6715 5.08317 15.0073 5.49738 15.0073H5.50488ZM17.25 10.5C18.0784 10.5 18.75 11.1716 18.75 12C18.75 12.8284 18.0784 13.5 17.25 13.5C16.4216 13.5 15.75 12.8284 15.75 12C15.75 11.1716 16.4216 10.5 17.25 10.5ZM18.75 16.5C18.75 15.6716 18.0784 15 17.25 15C16.4216 15 15.75 15.6716 15.75 16.5C15.75 17.3284 16.4216 18 17.25 18C18.0784 18 18.75 17.3284 18.75 16.5Z" fill="#0F172A"/>
</svg>

<svg xmlns="http://www.w3.org/2000/svg" viewBox="0 0 24 24" fill="currentColor" aria-hidden="true" data-slot="icon">
  <path fill-rule="evenodd" d="M20.432 4.103a.75.75 0 0 0-.364-1.456L4.128 6.632l-.2.033C2.498 6.904 1.5 8.158 1.5 9.574v9.176a3 3 0 0 0 3 3h15a3 3 0 0 0 3-3V9.574c0-1.416-.997-2.67-2.429-2.909a49.017 49.017 0 0 0-7.255-.658l7.616-1.904Zm-9.585 8.56a.75.75 0 0 1 0 1.06l-.005.006a.75.75 0 0 1-1.06 0l-.006-.006a.75.75 0 0 1 0-1.06l.005-.005a.75.75 0 0 1 1.06 0l.006.005ZM9.781 15.85a.75.75 0 0 0 1.061 0l.005-.005a.75.75 0 0 0 0-1.061l-.005-.005a.75.75 0 0 0-1.06 0l-.006.005a.75.75 0 0 0 0 1.06l.005.006Zm-1.055-1.066a.75.75 0 0 1 0 1.06l-.005.006a.75.75 0 0 1-1.061 0l-.005-.005a.75.75 0 0 1 0-1.06l.005-.006a.75.75 0 0 1 1.06 0l.006.005ZM7.66 13.73a.75.75 0 0 0 1.061 0l.005-.006a.75.75 0 0 0 0-1.06l-.005-.006a.75.75 0 0 0-1.06 0l-.006.006a.75.75 0 0 0 0 1.06l.005.006ZM9.255 9.75a.75.75 0 0 1 .75.75v.008a.75.75 0 0 1-.75.75h-.008a.75.75 0 0 1-.75-.75V10.5a.75.75 0 0 1 .75-.75h.008Zm3.624 3.28a.75.75 0 0 0 .275-1.025L13.15 12a.75.75 0 0 0-1.025-.275l-.006.004a.75.75 0 0 0-.275 1.024l.004.007a.75.75 0 0 0 1.025.274l.006-.003Zm-1.38 5.126a.75.75 0 0 1-1.024-.275l-.004-.006a.75.75 0 0 1 .275-1.025l.006-.004a.75.75 0 0 1 1.025.275l.004.007a.75.75 0 0 1-.275 1.024l-.006.004Zm.282-6.776a.75.75 0 0 0-.274-1.025l-.007-.003a.75.75 0 0 0-1.024.274l-.004.007a.75.75 0 0 0 .274 1.024l.007.004a.75.75 0 0 0 1.024-.275l.004-.006Zm1.369 5.129a.75.75 0 0 1-1.025.274l-.006-.004a.75.75 0 0 1-.275-1.024l.004-.007a.75.75 0 0 1 1.025-.274l.006.004a.75.75 0 0 1 .275 1.024l-.004.007Zm-.145-1.502a.75.75 0 0 0 .75-.75v-.007a.75.75 0 0 0-.75-.75h-.008a.75.75 0 0 0-.75.75v.007c0 .415.336.75.75.75h.008Zm-3.75 2.243a.75.75 0 0 1 .75.75v.008a.75.75 0 0 1-.75.75h-.008a.75.75 0 0 1-.75-.75V18a.75.75 0 0 1 .75-.75h.008Zm-2.871-.47a.75.75 0 0 0 .274-1.025l-.003-.006a.75.75 0 0 0-1.025-.275l-.006.004a.75.75 0 0 0-.275 1.024l.004.007a.75.75 0 0 0 1.024.274l.007-.003Zm1.366-5.12a.75.75 0 0 1-1.025-.274l-.004-.006a.75.75 0 0 1 .275-1.025l.006-.004a.75.75 0 0 1 1.025.275l.004.006a.75.75 0 0 1-.275 1.025l-.006.004Zm.281 6.215a.75.75 0 0 0-.275-1.024l-.006-.004a.75.75 0 0 0-1.025.274l-.003.007a.75.75 0 0 0 .274 1.024l.007.004a.75.75 0 0 0 1.024-.274l.004-.007Zm-1.376-5.116a.75.75 0 0 1-1.025.274l-.006-.003a.75.75 0 0 1-.275-1.025l.004-.007a.75.75 0 0 1 1.025-.274l.006.004a.75.75 0 0 1 .275 1.024l-.004.007Zm-1.15 2.248a.75.75 0 0 0 .75-.75v-.007a.75.75 0 0 0-.75-.75h-.008a.75.75 0 0 0-.75.75v.007c0 .415.336.75.75.75h.008ZM17.25 10.5a1.5 1.5 0 1 1 0 3 1.5 1.5 0 0 1 0-3Zm1.5 6a1.5 1.5 0 1 0-3 0 1.5 1.5 0 0 0 3 0Z" clip-rule="evenodd"/>
</svg>
